X:2453
T:Hannah Towles
O:england
M:3/4
L:1/8
C:Bob McQuillian
S:One of the many McQuillian books
K:G
DE|G2AG AB|d2ed eg|b2ag ed|e4ge|
d2ed BG|A2BA GE|GB AG ED|E4GE|
E2D2EG|A2 AG AB|de de gb|ag e2ga|
ba gb ag|ed B2 GB|AG E2 G2|G4||
Bd|ed BG AB|GF DG Bd|ed BG AB|GF E2 ef|
g2 gf ed|e2 ed BA|B2 e2 ed|e2 ef ge|
de dB ed|B2 A2 Bd|ed BA GE|D2 B,2 BA|
GA Be dB|dB A2 BA|G2 E2 ED|E4||


